symbols/web/garage/materialsymbolsoutlined/garage_grad200fill1_20px.svg

<svg xmlns="http://www.w3.org/2000/svg" height="20" width="20"><path d="M3.312 19q-.979 0-1.635-.656t-.656-1.636V3.292q0-.959.656-1.625Q2.333 1 3.312 1h13.417q.959 0 1.625.667.667.666.667 1.625v13.416q0 .98-.667 1.636-.666.656-1.625.656Zm4.042-6.812q-.375 0-.656-.292t-.281-.667q0-.375.281-.667.281-.291.656-.291.396 0 .688.291.291.292.291.667 0 .375-.291.667-.292.292-.688.292Zm5.334 0q-.376 0-.667-.292-.292-.292-.292-.667 0-.375.292-.667.291-.291.667-.291.374 0 .666.291.292.292.292.667 0 .375-.292.667-.292.292-.666.292ZM3.896 9.562v5.355q0 .312.229.541.229.23.542.23h.416q.313 0 .542-.23.229-.229.229-.541v-.271h8.334v.271q0 .312.229.541.229.23.541.23h.417q.313 0 .542-.23.229-.229.229-.541V9.562l-1.271-4.145q-.167-.542-.625-.855-.458-.312-1.042-.312H6.833q-.562 0-1.031.312-.469.313-.635.855ZM6.5 7.854l.479-1.646h6.083l.48 1.646Z"/></svg>

<svg xmlns="http://www.w3.org/2000/svg" height="20" width="20"><path d="M3.312 19Q2.333 19 1.677 18.344Q1.021 17.688 1.021 16.708V3.292Q1.021 2.333 1.677 1.667Q2.333 1 3.312 1H16.729Q17.688 1 18.354 1.667Q19.021 2.333 19.021 3.292V16.708Q19.021 17.688 18.354 18.344Q17.688 19 16.729 19ZM7.354 12.188Q6.979 12.188 6.698 11.896Q6.417 11.604 6.417 11.229Q6.417 10.854 6.698 10.562Q6.979 10.271 7.354 10.271Q7.75 10.271 8.042 10.562Q8.333 10.854 8.333 11.229Q8.333 11.604 8.042 11.896Q7.75 12.188 7.354 12.188ZM12.688 12.188Q12.312 12.188 12.021 11.896Q11.729 11.604 11.729 11.229Q11.729 10.854 12.021 10.562Q12.312 10.271 12.688 10.271Q13.062 10.271 13.354 10.562Q13.646 10.854 13.646 11.229Q13.646 11.604 13.354 11.896Q13.062 12.188 12.688 12.188ZM3.896 9.562V14.917Q3.896 15.229 4.125 15.458Q4.354 15.688 4.667 15.688H5.083Q5.396 15.688 5.625 15.458Q5.854 15.229 5.854 14.917V14.646H14.188V14.917Q14.188 15.229 14.417 15.458Q14.646 15.688 14.958 15.688H15.375Q15.688 15.688 15.917 15.458Q16.146 15.229 16.146 14.917V9.562L14.875 5.417Q14.708 4.875 14.25 4.562Q13.792 4.25 13.208 4.25H6.833Q6.271 4.25 5.802 4.562Q5.333 4.875 5.167 5.417ZM6.5 7.854 6.979 6.208H13.062L13.542 7.854Z"/></svg>
